icons/2_Variations/Nifty Gateway bg.var.svg

<svg xmlns="http://www.w3.org/2000/svg" width="1024" height="1024" fill="none">
   <g clip-path="url(#a)">
      <path fill="#ABABFF" d="M512 1024c282.77 0 512-229.23 512-512S794.77 0 512 0 0 229.23 0 512s229.23 512 512 512Z"/>
      <path fill="#fff" d="M720.3 298.71c-26.7-26.7-69.67-26.7-155.61-26.7H459.3c-85.94 0-128.91 0-155.6 26.7C277 325.39 277 368.37 277 454.3v115.4c0 85.94 0 128.91 26.7 155.6C330.4 752 373.37 752 459.3 752h105.39c85.94 0 128.91 0 155.61-26.7C747 698.6 747 655.63 747 569.7V454.31c0-85.94 0-128.91-26.7-155.6Zm-1.79 270.99c0 43.77-.06 73.74-3.08 96.22-2.91 21.66-8.1 32.07-15.27 39.24-7.17 7.17-17.58 12.36-39.24 15.27-22.48 3.02-52.45 3.08-96.22 3.08H459.31c-43.77 0-73.74-.06-96.22-3.08-21.66-2.91-32.07-8.1-39.24-15.27-7.17-7.17-12.36-17.58-15.27-39.24-3.02-22.48-3.08-52.45-3.08-96.22V454.3c0-43.77.06-73.74 3.08-96.22 2.91-21.66 8.1-32.07 15.27-39.24 7.17-7.17 17.58-12.36 39.24-15.27 22.48-3.02 52.45-3.08 96.22-3.08H564.7c43.77 0 73.74.06 96.22 3.08 21.66 2.91 32.07 8.1 39.24 15.27 7.17 7.17 12.36 17.58 15.27 39.24 3.02 22.48 3.08 52.45 3.08 96.22v115.4ZM566.33 397.76h43.58v240.27h-45.99L453.05 466.75v171.28h-43.59V397.76h48.06l108.81 169.22V397.76Z"/>
   </g>
   <defs>
      <clipPath id="a">
         <path fill="#fff" d="M0 0h1024v1024H0z"/>
      </clipPath>
   </defs>
</svg>

<svg width="1024" height="1024" viewBox="0 0 1024 1024" fill="none" xmlns="http://www.w3.org/2000/svg">
<g clip-path="url(#clip0_3_185)">
<path d="M512 1024C794.77 1024 1024 794.77 1024 512C1024 229.23 794.77 0 512 0C229.23 0 0 229.23 0 512C0 794.77 229.23 1024 512 1024Z" fill="#ABABFF"/>
<path d="M720.3 298.71C693.6 272.01 650.63 272.01 564.69 272.01H459.3C373.36 272.01 330.39 272.01 303.7 298.71C277 325.39 277 368.37 277 454.3V569.7C277 655.64 277 698.61 303.7 725.3C330.4 752 373.37 752 459.3 752H564.69C650.63 752 693.6 752 720.3 725.3C747 698.6 747 655.63 747 569.7V454.31C747 368.37 747 325.4 720.3 298.71ZM718.51 569.7C718.51 613.47 718.45 643.44 715.43 665.92C712.52 687.58 707.33 697.99 700.16 705.16C692.99 712.33 682.58 717.52 660.92 720.43C638.44 723.45 608.47 723.51 564.7 723.51H459.31C415.54 723.51 385.57 723.45 363.09 720.43C341.43 717.52 331.02 712.33 323.85 705.16C316.68 697.99 311.49 687.58 308.58 665.92C305.56 643.44 305.5 613.47 305.5 569.7V454.3C305.5 410.53 305.56 380.56 308.58 358.08C311.49 336.42 316.68 326.01 323.85 318.84C331.02 311.67 341.43 306.48 363.09 303.57C385.57 300.55 415.54 300.49 459.31 300.49H564.7C608.47 300.49 638.44 300.55 660.92 303.57C682.58 306.48 692.99 311.67 700.16 318.84C707.33 326.01 712.52 336.42 715.43 358.08C718.45 380.56 718.51 410.53 718.51 454.3V569.7ZM566.33 397.76H609.91V638.03H563.92L453.05 466.75V638.03H409.46V397.76H457.52L566.33 566.98V397.76Z" fill="white"/>
</g>
<defs>
<clipPath id="clip0_3_185">
<rect width="1024" height="1024" fill="white"/>
</clipPath>
</defs>
</svg>
